X:153
T:Hunter's House
Z: id:dc-reel-141
M:C
L:1/8
K:G Major
dc|BddB cAFA|G2BG DGBG|BddB cAFA|GBAG FDCA,|!
DGBG cGBG|cBAF GABc|defg agfd|cAFA G2:|!
dc|B2gB aBgB|B2gf edcB|A2aA bAaA|A2af gfed|!
B2gB aBgB|B2gf edcB|[1 cBAg fdBd|cAFA GB:|[2 cBAg fgaf|gdBd cA|]!

